X: 1
T: Petronella
C: Nathaniel Gow (1817)
%D:1817
R: reel
S: Fiddle Hell Online 2020 handout for mandolin class
Z: 2020 John Chambers <jc:trillian.mit.edu>
M: C|
L: 1/8
K: D
|:\
"D"F2FF "A"E2FE | "D"D2A,2 D2AB | d2cd "A"e2d2 | cdBc A2BA ||\
"D"F2FF "A"E2FE | "D"D2A,2 D2AB | d2cd "A"e2c2 |1 "D"d4 d2A2 :|2 "D"d3d dBAF ||
|:\
"D"D2fd Adaf | "G"g2gf edcB | "A"A2ec Aceg | "D"fafd AdAF ||\
"D"D2fd Adaf | "G"g2gf edcB | "A"A2ec Acec |1 "D"d3d dBAF :|2 "D"d4 d2z2 |]
